svg/color/krom.svg

<?xml version="1.0" encoding="UTF-8" ?>
<!DOCTYPE svg PUBLIC "-//W3C//DTD SVG 1.1//EN" "http://www.w3.org/Graphics/SVG/1.1/DTD/svg11.dtd">
<svg width="250pt" height="250pt" viewBox="0 0 250 250" version="1.1" xmlns="http://www.w3.org/2000/svg">
<g id="#ffffffff">
<path fill="#ffffff" opacity="1.00" d=" M 0.00 0.00 L 250.00 0.00 L 250.00 250.00 L 0.00 250.00 L 0.00 0.00 M 44.86 44.87 C 42.29 47.16 42.38 50.79 42.36 53.94 C 42.23 89.28 42.65 124.62 42.12 159.96 C 41.92 167.66 41.48 175.39 42.00 183.09 C 42.14 187.21 45.80 190.84 49.95 190.81 C 54.50 191.23 57.68 187.45 60.84 184.81 C 82.32 165.92 103.68 146.90 125.29 128.17 C 134.65 136.68 144.28 144.87 153.81 153.19 C 166.78 164.56 179.40 176.32 192.20 187.88 C 194.55 189.99 197.73 191.76 200.98 190.81 C 205.29 189.93 208.39 185.46 207.67 181.11 C 207.21 177.64 204.33 175.34 201.88 173.15 C 180.40 154.61 159.28 135.67 138.27 116.60 C 159.89 97.43 181.65 78.42 203.17 59.13 C 205.15 57.17 207.66 55.07 207.67 52.03 C 208.04 48.55 206.10 44.70 202.67 43.56 C 199.51 42.84 195.84 42.95 193.37 45.33 C 170.44 65.01 147.94 85.19 125.16 105.04 C 103.73 86.09 82.38 67.03 60.96 48.07 C 59.20 46.53 57.46 44.95 55.48 43.69 C 52.27 41.56 47.41 41.77 44.86 44.87 M 41.96 205.61 C 41.47 212.02 41.48 218.45 41.80 224.87 C 45.53 222.67 48.73 219.74 51.92 216.84 C 55.31 219.65 58.17 223.67 62.78 224.47 C 60.32 220.86 56.93 218.07 53.69 215.20 C 56.94 212.48 60.26 209.76 62.83 206.34 C 58.08 206.60 55.39 211.14 51.93 213.78 C 48.80 210.83 45.56 207.97 41.96 205.61 M 88.33 206.34 C 82.18 207.74 79.92 215.77 83.13 220.79 C 86.00 225.60 93.43 226.20 97.36 222.40 C 100.98 218.75 101.01 212.24 97.40 208.57 C 95.08 206.22 91.46 205.60 88.33 206.34 M 119.83 206.90 C 117.29 211.46 115.89 216.55 113.69 221.28 C 111.71 216.87 110.36 212.20 108.13 207.91 C 107.52 205.95 105.31 206.39 103.75 206.18 C 103.65 212.48 103.53 218.79 103.79 225.09 C 104.34 224.79 105.45 224.17 106.01 223.86 C 106.67 219.21 106.17 214.48 106.35 209.79 C 108.80 215.13 110.01 221.16 113.91 225.73 C 117.07 220.99 118.63 215.47 121.01 210.35 C 120.99 215.31 120.83 220.31 121.65 225.22 C 122.20 224.92 123.31 224.31 123.87 224.01 C 123.67 218.21 124.47 212.33 123.38 206.60 C 122.33 206.17 120.48 205.63 119.83 206.90 M 143.38 208.03 C 145.53 208.81 147.82 209.02 150.08 209.31 C 150.16 214.22 149.77 219.16 150.30 224.05 C 151.20 224.30 152.11 224.55 153.02 224.78 C 153.04 219.59 153.03 214.40 153.02 209.22 C 155.04 209.04 157.06 208.89 159.06 208.54 C 159.01 208.03 158.90 207.01 158.85 206.49 C 155.27 206.01 151.64 206.08 148.03 206.17 C 146.32 206.33 144.05 205.94 143.38 208.03 M 162.00 207.15 C 161.15 213.10 161.78 219.16 161.82 225.15 C 162.38 224.86 163.48 224.27 164.04 223.98 C 164.80 217.86 164.34 211.65 164.06 205.51 C 163.55 205.92 162.52 206.74 162.00 207.15 M 168.80 205.39 C 168.20 211.89 168.25 218.42 168.62 224.92 C 172.39 222.74 175.61 219.80 178.84 216.92 C 182.18 219.82 185.02 223.92 189.73 224.55 C 187.32 220.87 183.89 218.07 180.66 215.16 C 183.85 212.33 187.90 210.02 189.26 205.71 C 185.17 207.51 181.98 210.68 178.68 213.61 C 175.58 210.65 172.35 207.81 168.80 205.39 M 199.01 205.92 C 195.52 211.83 193.04 218.36 191.10 224.94 C 193.67 224.44 194.76 222.15 195.85 220.07 C 198.50 220.01 201.15 219.98 203.81 220.00 C 204.94 222.07 206.05 224.43 208.64 224.96 C 206.77 218.39 204.15 211.96 200.84 205.99 C 200.38 205.98 199.47 205.94 199.01 205.92 M 64.60 206.42 C 64.61 212.34 64.12 218.29 64.72 224.20 C 65.45 224.70 66.19 224.70 66.93 224.20 C 67.22 221.96 67.23 219.71 67.30 217.46 C 69.52 217.54 71.76 217.49 73.95 217.92 C 76.78 219.20 75.00 223.94 77.94 224.96 C 79.96 222.27 78.06 218.98 76.85 216.38 C 78.34 214.02 80.11 210.75 77.68 208.35 C 74.17 205.18 68.90 206.62 64.60 206.42 M 127.25 223.86 C 129.22 226.67 130.71 221.56 131.68 220.13 C 134.39 220.09 137.11 220.07 139.82 220.07 C 140.62 221.63 141.28 223.24 142.08 224.80 C 142.69 224.65 143.91 224.34 144.52 224.19 C 141.54 217.84 140.27 210.30 135.13 205.23 C 132.21 211.29 129.16 217.39 127.25 223.86 Z" />
<path fill="#ffffff" opacity="1.00" d=" M 59.24 69.32 C 76.99 84.93 94.54 100.76 112.15 116.53 C 94.64 132.35 76.81 147.80 59.19 163.49 C 59.24 139.00 58.33 114.51 58.91 90.01 C 59.32 83.12 59.20 76.22 59.24 69.32 Z" />
<path fill="#ffffff" opacity="1.00" d=" M 67.17 208.69 C 69.90 208.86 72.75 208.65 75.36 209.62 C 76.82 211.15 76.55 213.60 74.54 214.48 C 72.13 215.10 69.61 214.95 67.15 215.06 C 67.16 212.94 67.16 210.81 67.17 208.69 Z" />
<path fill="#ffffff" opacity="1.00" d=" M 87.40 209.46 C 91.12 207.08 96.85 209.40 97.26 213.97 C 98.39 218.36 94.65 223.19 89.96 222.23 C 83.77 221.82 82.35 212.41 87.40 209.46 Z" />
<path fill="#ffffff" opacity="1.00" d=" M 44.07 209.93 C 46.09 211.68 48.11 213.44 50.12 215.21 C 48.13 217.01 46.14 218.82 44.13 220.61 C 44.08 217.05 44.07 213.49 44.07 209.93 Z" />
<path fill="#ffffff" opacity="1.00" d=" M 135.64 209.88 C 136.75 212.39 137.80 214.93 138.87 217.47 C 136.82 217.49 134.78 217.47 132.74 217.48 C 133.70 214.94 134.66 212.41 135.64 209.88 Z" />
<path fill="#ffffff" opacity="1.00" d=" M 171.01 210.04 C 172.95 211.82 174.89 213.61 176.83 215.40 C 174.89 217.04 172.95 218.66 171.00 220.28 C 170.98 216.87 170.98 213.46 171.01 210.04 Z" />
<path fill="#ffffff" opacity="1.00" d=" M 196.84 217.22 C 197.83 214.76 198.84 212.30 199.85 209.86 C 200.89 212.30 201.92 214.76 202.95 217.22 C 200.91 217.22 198.88 217.21 196.84 217.22 Z" />
</g>
<g id="#b7c5f6ff">
<path fill="#b7c5f6" opacity="1.00" d=" M 44.86 44.87 C 47.41 41.77 52.27 41.56 55.48 43.69 C 57.46 44.95 59.20 46.53 60.96 48.07 C 82.38 67.03 103.73 86.09 125.16 105.04 C 147.94 85.19 170.44 65.01 193.37 45.33 C 195.84 42.95 199.51 42.84 202.67 43.56 C 206.10 44.70 208.04 48.55 207.67 52.03 C 207.66 55.07 205.15 57.17 203.17 59.13 C 181.65 78.42 159.89 97.43 138.27 116.60 C 159.28 135.67 180.40 154.61 201.88 173.15 C 204.33 175.34 207.21 177.64 207.67 181.11 C 208.39 185.46 205.29 189.93 200.98 190.81 C 197.73 191.76 194.55 189.99 192.20 187.88 C 179.40 176.32 166.78 164.56 153.81 153.19 C 144.28 144.87 134.65 136.68 125.29 128.17 C 103.68 146.90 82.32 165.92 60.84 184.81 C 57.68 187.45 54.50 191.23 49.95 190.81 C 45.80 190.84 42.14 187.21 42.00 183.09 C 41.48 175.39 41.92 167.66 42.12 159.96 C 42.65 124.62 42.23 89.28 42.36 53.94 C 42.38 50.79 42.29 47.16 44.86 44.87 M 59.24 69.32 C 59.20 76.22 59.32 83.12 58.91 90.01 C 58.33 114.51 59.24 139.00 59.19 163.49 C 76.81 147.80 94.64 132.35 112.15 116.53 C 94.54 100.76 76.99 84.93 59.24 69.32 Z" />
<path fill="#b7c5f6" opacity="1.00" d=" M 41.96 205.61 C 45.56 207.97 48.80 210.83 51.93 213.78 C 55.39 211.14 58.08 206.60 62.83 206.34 C 60.26 209.76 56.94 212.48 53.69 215.20 C 56.93 218.07 60.32 220.86 62.78 224.47 C 58.17 223.67 55.31 219.65 51.92 216.84 C 48.73 219.74 45.53 222.67 41.80 224.87 C 41.48 218.45 41.47 212.02 41.96 205.61 M 44.07 209.93 C 44.07 213.49 44.08 217.05 44.13 220.61 C 46.14 218.82 48.13 217.01 50.12 215.21 C 48.11 213.44 46.09 211.68 44.07 209.93 Z" />
<path fill="#b7c5f6" opacity="1.00" d=" M 88.33 206.34 C 91.46 205.60 95.08 206.22 97.40 208.57 C 101.01 212.24 100.98 218.75 97.36 222.40 C 93.43 226.20 86.00 225.60 83.13 220.79 C 79.92 215.77 82.18 207.74 88.33 206.34 M 87.40 209.46 C 82.35 212.41 83.77 221.82 89.96 222.23 C 94.65 223.19 98.39 218.36 97.26 213.97 C 96.85 209.40 91.12 207.08 87.40 209.46 Z" />
<path fill="#b7c5f6" opacity="1.00" d=" M 119.83 206.90 C 120.48 205.63 122.33 206.17 123.38 206.60 C 124.47 212.33 123.67 218.21 123.87 224.01 C 123.31 224.31 122.20 224.92 121.65 225.22 C 120.83 220.31 120.99 215.31 121.01 210.35 C 118.63 215.47 117.07 220.99 113.91 225.73 C 110.01 221.16 108.80 215.13 106.35 209.79 C 106.17 214.48 106.67 219.21 106.01 223.86 C 105.45 224.17 104.34 224.79 103.79 225.09 C 103.53 218.79 103.65 212.48 103.75 206.18 C 105.31 206.39 107.52 205.95 108.13 207.91 C 110.36 212.20 111.71 216.87 113.69 221.28 C 115.89 216.55 117.29 211.46 119.83 206.90 Z" />
<path fill="#b7c5f6" opacity="1.00" d=" M 143.38 208.03 C 144.05 205.94 146.32 206.33 148.03 206.17 C 151.64 206.08 155.27 206.01 158.85 206.49 C 158.90 207.01 159.01 208.03 159.06 208.54 C 157.06 208.89 155.04 209.04 153.02 209.22 C 153.03 214.40 153.04 219.59 153.02 224.78 C 152.11 224.55 151.20 224.30 150.30 224.05 C 149.77 219.16 150.16 214.22 150.08 209.31 C 147.82 209.02 145.53 208.81 143.38 208.03 Z" />
<path fill="#b7c5f6" opacity="1.00" d=" M 162.00 207.15 C 162.52 206.74 163.55 205.92 164.06 205.51 C 164.34 211.65 164.80 217.86 164.04 223.98 C 163.48 224.27 162.38 224.86 161.82 225.15 C 161.78 219.16 161.15 213.10 162.00 207.15 Z" />
<path fill="#b7c5f6" opacity="1.00" d=" M 168.80 205.39 C 172.35 207.81 175.58 210.65 178.68 213.61 C 181.98 210.68 185.17 207.51 189.26 205.71 C 187.90 210.02 183.85 212.33 180.66 215.16 C 183.89 218.07 187.32 220.87 189.73 224.55 C 185.02 223.92 182.18 219.82 178.84 216.92 C 175.61 219.80 172.39 222.74 168.62 224.92 C 168.25 218.42 168.20 211.89 168.80 205.39 M 171.01 210.04 C 170.98 213.46 170.98 216.87 171.00 220.28 C 172.95 218.66 174.89 217.04 176.83 215.40 C 174.89 213.61 172.95 211.82 171.01 210.04 Z" />
<path fill="#b7c5f6" opacity="1.00" d=" M 199.01 205.92 C 199.47 205.94 200.38 205.98 200.84 205.99 C 204.15 211.96 206.77 218.39 208.64 224.96 C 206.05 224.43 204.94 222.07 203.81 220.00 C 201.15 219.98 198.50 220.01 195.85 220.07 C 194.76 222.15 193.67 224.44 191.10 224.94 C 193.04 218.36 195.52 211.83 199.01 205.92 M 196.84 217.22 C 198.88 217.21 200.91 217.22 202.95 217.22 C 201.92 214.76 200.89 212.30 199.85 209.86 C 198.84 212.30 197.83 214.76 196.84 217.22 Z" />
<path fill="#b7c5f6" opacity="1.00" d=" M 64.60 206.42 C 68.90 206.62 74.17 205.18 77.68 208.35 C 80.11 210.75 78.34 214.02 76.85 216.38 C 78.06 218.98 79.96 222.27 77.94 224.96 C 75.00 223.94 76.78 219.20 73.95 217.92 C 71.76 217.49 69.52 217.54 67.30 217.46 C 67.23 219.71 67.22 221.96 66.93 224.20 C 66.19 224.70 65.45 224.70 64.72 224.20 C 64.12 218.29 64.61 212.34 64.60 206.42 M 67.17 208.69 C 67.16 210.81 67.16 212.94 67.15 215.06 C 69.61 214.95 72.13 215.10 74.54 214.48 C 76.55 213.60 76.82 211.15 75.36 209.62 C 72.75 208.65 69.90 208.86 67.17 208.69 Z" />
<path fill="#b7c5f6" opacity="1.00" d=" M 127.25 223.86 C 129.16 217.39 132.21 211.29 135.13 205.23 C 140.27 210.30 141.54 217.84 144.52 224.19 C 143.91 224.34 142.69 224.65 142.08 224.80 C 141.28 223.24 140.62 221.63 139.82 220.07 C 137.11 220.07 134.39 220.09 131.68 220.13 C 130.71 221.56 129.22 226.67 127.25 223.86 M 135.64 209.88 C 134.66 212.41 133.70 214.94 132.74 217.48 C 134.78 217.47 136.82 217.49 138.87 217.47 C 137.80 214.93 136.75 212.39 135.64 209.88 Z" />
</g>
</svg>

<?xml version="1.0" encoding="utf-8"?>
<!-- Generator: Adobe Illustrator 26.0.3, SVG Export Plug-In . SVG Version: 6.00 Build 0)  -->
<svg version="1.1" id="Layer_1" xmlns="http://www.w3.org/2000/svg" xmlns:xlink="http://www.w3.org/1999/xlink" x="0px" y="0px"
	 viewBox="0 0 250 250" style="enable-background:new 0 0 250 250;" xml:space="preserve">
<style type="text/css">
	.st0{fill:#FFFFFF;}
	.st1{fill:#B7C5F6;}
</style>
<g id="_x23_ffffffff">
	<path class="st0" d="M59.2,69.3c17.7,15.6,35.3,31.4,52.9,47.2c-17.5,15.8-35.3,31.3-53,47c0.1-24.5-0.9-49-0.3-73.5
		C59.3,83.1,59.2,76.2,59.2,69.3z"/>
	<path class="st0" d="M67.2,208.7c2.7,0.2,5.6,0,8.2,0.9c1.5,1.5,1.2,4-0.8,4.9c-2.4,0.6-4.9,0.5-7.4,0.6
		C67.2,212.9,67.2,210.8,67.2,208.7z"/>
	<path class="st0" d="M87.4,209.5c3.7-2.4,9.4-0.1,9.9,4.5c1.1,4.4-2.6,9.2-7.3,8.3C83.8,221.8,82.3,212.4,87.4,209.5z"/>
	<path class="st0" d="M44.1,209.9c2,1.8,4,3.5,6,5.3c-2,1.8-4,3.6-6,5.4C44.1,217.1,44.1,213.5,44.1,209.9z"/>
	<path class="st0" d="M135.6,209.9c1.1,2.5,2.2,5,3.2,7.6c-2,0-4.1,0-6.1,0C133.7,214.9,134.7,212.4,135.6,209.9z"/>
	<path class="st0" d="M171,210c1.9,1.8,3.9,3.6,5.8,5.4c-1.9,1.6-3.9,3.3-5.8,4.9C171,216.9,171,213.5,171,210z"/>
	<path class="st0" d="M196.8,217.2c1-2.5,2-4.9,3-7.4c1,2.4,2.1,4.9,3.1,7.4C200.9,217.2,198.9,217.2,196.8,217.2z"/>
</g>
<g id="_x23_b7c5f6ff">
	<path class="st1" d="M44.9,44.9c2.5-3.1,7.4-3.3,10.6-1.2c2,1.3,3.7,2.8,5.5,4.4c21.4,19,42.8,38,64.2,57
		c22.8-19.8,45.3-40,68.2-59.7c2.5-2.4,6.1-2.5,9.3-1.8c3.4,1.1,5.4,5,5,8.5c0,3-2.5,5.1-4.5,7.1c-21.5,19.3-43.3,38.3-64.9,57.5
		c21,19.1,42.1,38,63.6,56.5c2.4,2.2,5.3,4.5,5.8,8c0.7,4.4-2.4,8.8-6.7,9.7c-3.2,0.9-6.4-0.8-8.8-2.9
		c-12.8-11.6-25.4-23.3-38.4-34.7c-9.5-8.3-19.2-16.5-28.5-25c-21.6,18.7-43,37.8-64.4,56.6c-3.2,2.6-6.3,6.4-10.9,6
		c-4.2,0-7.8-3.6-8-7.7c-0.5-7.7-0.1-15.4,0.1-23.1c0.5-35.3,0.1-70.7,0.2-106C42.4,50.8,42.3,47.2,44.9,44.9 M59.2,69.3
		c0,6.9,0.1,13.8-0.3,20.7c-0.6,24.5,0.3,49,0.3,73.5c17.6-15.7,35.5-31.1,53-47C94.5,100.8,77,84.9,59.2,69.3z"/>
	<path class="st1" d="M42,205.6c3.6,2.4,6.8,5.2,10,8.2c3.5-2.6,6.2-7.2,10.9-7.4c-2.6,3.4-5.9,6.1-9.1,8.9c3.2,2.9,6.6,5.7,9.1,9.3
		c-4.6-0.8-7.5-4.8-10.9-7.6c-3.2,2.9-6.4,5.8-10.1,8C41.5,218.4,41.5,212,42,205.6 M44.1,209.9c0,3.6,0,7.1,0.1,10.7
		c2-1.8,4-3.6,6-5.4C48.1,213.4,46.1,211.7,44.1,209.9z"/>
	<path class="st1" d="M88.3,206.3c3.1-0.7,6.8-0.1,9.1,2.2c3.6,3.7,3.6,10.2,0,13.8c-3.9,3.8-11.4,3.2-14.2-1.6
		C79.9,215.8,82.2,207.7,88.3,206.3 M87.4,209.5c-5.1,2.9-3.6,12.4,2.6,12.8c4.7,1,8.4-3.9,7.3-8.3
		C96.8,209.4,91.1,207.1,87.4,209.5z"/>
	<path class="st1" d="M119.8,206.9c0.7-1.3,2.5-0.7,3.5-0.3c1.1,5.7,0.3,11.6,0.5,17.4c-0.6,0.3-1.7,0.9-2.2,1.2
		c-0.8-4.9-0.7-9.9-0.6-14.9c-2.4,5.1-3.9,10.6-7.1,15.4c-3.9-4.6-5.1-10.6-7.6-15.9c-0.2,4.7,0.3,9.4-0.3,14.1
		c-0.6,0.3-1.7,0.9-2.2,1.2c-0.3-6.3-0.1-12.6,0-18.9c1.6,0.2,3.8-0.2,4.4,1.7c2.2,4.3,3.6,9,5.6,13.4
		C115.9,216.6,117.3,211.5,119.8,206.9z"/>
	<path class="st1" d="M143.4,208c0.7-2.1,2.9-1.7,4.6-1.9c3.6-0.1,7.2-0.2,10.8,0.3c0,0.5,0.2,1.5,0.2,2c-2,0.4-4,0.5-6,0.7
		c0,5.2,0,10.4,0,15.6c-0.9-0.2-1.8-0.5-2.7-0.7c-0.5-4.9-0.1-9.8-0.2-14.7C147.8,209,145.5,208.8,143.4,208z"/>
	<path class="st1" d="M162,207.1c0.5-0.4,1.6-1.2,2.1-1.6c0.3,6.1,0.7,12.4,0,18.5c-0.6,0.3-1.7,0.9-2.2,1.2
		C161.8,219.2,161.1,213.1,162,207.1z"/>
	<path class="st1" d="M168.8,205.4c3.6,2.4,6.8,5.3,9.9,8.2c3.3-2.9,6.5-6.1,10.6-7.9c-1.4,4.3-5.4,6.6-8.6,9.4
		c3.2,2.9,6.7,5.7,9.1,9.4c-4.7-0.6-7.6-4.7-10.9-7.6c-3.2,2.9-6.4,5.8-10.2,8C168.2,218.4,168.2,211.9,168.8,205.4 M171,210
		c0,3.4,0,6.8,0,10.2c1.9-1.6,3.9-3.2,5.8-4.9C174.9,213.6,172.9,211.8,171,210z"/>
	<path class="st1" d="M199,205.9c0.5,0,1.4,0.1,1.8,0.1c3.3,6,5.9,12.4,7.8,19c-2.6-0.5-3.7-2.9-4.8-5c-2.7,0-5.3,0-8,0.1
		c-1.1,2.1-2.2,4.4-4.8,4.9C193,218.4,195.5,211.8,199,205.9 M196.8,217.2c2,0,4.1,0,6.1,0c-1-2.5-2.1-4.9-3.1-7.4
		C198.8,212.3,197.8,214.8,196.8,217.2z"/>
	<path class="st1" d="M64.6,206.4c4.3,0.2,9.6-1.2,13.1,1.9c2.4,2.4,0.7,5.7-0.8,8c1.2,2.6,3.1,5.9,1.1,8.6c-2.9-1-1.2-5.8-4-7
		c-2.2-0.4-4.4-0.4-6.6-0.5c-0.1,2.2-0.1,4.5-0.4,6.7c-0.7,0.5-1.5,0.5-2.2,0C64.1,218.3,64.6,212.3,64.6,206.4 M67.2,208.7
		c0,2.1,0,4.2,0,6.4c2.5-0.1,5,0,7.4-0.6c2-0.9,2.3-3.3,0.8-4.9C72.8,208.6,69.9,208.9,67.2,208.7z"/>
	<path class="st1" d="M127.2,223.9c1.9-6.5,5-12.6,7.9-18.6c5.1,5.1,6.4,12.6,9.4,19c-0.6,0.1-1.8,0.5-2.4,0.6
		c-0.8-1.6-1.5-3.2-2.3-4.7c-2.7,0-5.4,0-8.1,0.1C130.7,221.6,129.2,226.7,127.2,223.9 M135.6,209.9c-1,2.5-1.9,5.1-2.9,7.6
		c2,0,4.1,0,6.1,0C137.8,214.9,136.8,212.4,135.6,209.9z"/>
</g>
</svg>
